papirus/22x22/apps/steadyflow.svg

<svg height="22" width="22" xmlns="http://www.w3.org/2000/svg"><path d="m11 3c-2.8475 0-5.2725 1.8442667-6.3165 4.4544001-2.65065.4170667-4.6835 2.8074669-4.6835 5.7274659 0 3.213334 2.46245 5.818134 5.5 5.818134h11.6875c2.658 0 4.8125-2.279466 4.8125-5.090667 0-2.613333-1.8575-4.754666-4.254-5.0458657-.625-3.3354673-3.409-5.8634673-6.746-5.8634673z" fill="#62c1ec"/><path d="m11 3c-2.8475 0-5.2724062 1.8449447-6.3164062 4.4550781-2.6506501.4170667-4.6835938 2.8065639-4.6835938 5.7265629 0 .10733.0102008.212461.015625.318359.0840924-2.835117 2.073754-5.136735 4.6679688-5.5449219 1.044-2.6101334 3.4689062-4.4550781 6.3164062-4.4550781 3.337 0 6.121094 2.5278143 6.746094 5.863281 2.340753.284426 4.154571 2.338775 4.238281 4.869141.00638-.107285.015625-.213281.015625-.322266 0-2.613333-1.857406-4.755675-4.253906-5.0468748-.625-3.3354672-3.409094-5.8632812-6.746094-5.8632812z" fill="#fff" opacity=".2"/><path d="m .015625 13c-.0018294.061676-.015625.119471-.015625.181641 0 3.213334 2.46245 5.818359 5.5 5.818359h11.6875c2.658 0 4.8125-2.278643 4.8125-5.089844 0-.06079-.013631-.117472-.015625-.177734-.15819 2.660061-2.241921 4.767578-4.796875 4.767578h-11.6875c-2.9360914 0-5.3274059-2.435443-5.484375-5.5z" opacity=".3"/><g opacity=".2" transform="translate(0 .49999991)"><path d="m9 6h4v6h-4z" opacity="1"/><path d="m22.94221 48.203167l-5.927201-10.266212-5.9272-10.266211h11.8544 11.8544l-5.9272 10.266212z" opacity="1" transform="matrix(.33742746 0 0 .24351729 3.2586688 5.2616955)"/></g><path d="m9 6h4v6h-4z" fill="#fff"/><path d="m22.94221 48.203167l-5.927201-10.266212-5.9272-10.266211h11.8544 11.8544l-5.9272 10.266212z" fill="#fff" transform="matrix(.33742746 0 0 .24351729 3.2586688 5.2616955)"/></svg>

<?xml version="1.0" encoding="UTF-8" standalone="no"?>
<!-- Created with Inkscape (http://www.inkscape.org/) -->

<svg
   xmlns:dc="http://purl.org/dc/elements/1.1/"
   xmlns:cc="http://creativecommons.org/ns#"
   xmlns:rdf="http://www.w3.org/1999/02/22-rdf-syntax-ns#"
   xmlns:svg="http://www.w3.org/2000/svg"
   xmlns="http://www.w3.org/2000/svg"
   xmlns:sodipodi="http://sodipodi.sourceforge.net/DTD/sodipodi-0.dtd"
   xmlns:inkscape="http://www.inkscape.org/namespaces/inkscape"
   id="svg2817"
   height="22"
   width="22"
   version="1.0"
   inkscape:version="0.91 r13725"
   sodipodi:docname="steadyflow.svg">
  <defs
     id="defs11" />
  <sodipodi:namedview
     pagecolor="#ffffff"
     bordercolor="#666666"
     borderopacity="1"
     objecttolerance="10"
     gridtolerance="10"
     guidetolerance="10"
     inkscape:pageopacity="0"
     inkscape:pageshadow="2"
     inkscape:window-width="1600"
     inkscape:window-height="849"
     id="namedview9"
     showgrid="false"
     inkscape:zoom="6.56"
     inkscape:cx="6.3441838"
     inkscape:cy="13.187294"
     inkscape:window-x="0"
     inkscape:window-y="0"
     inkscape:window-maximized="1"
     inkscape:current-layer="svg2817" />
  <metadata
     id="metadata57">
    <rdf:RDF>
      <cc:Work
         rdf:about="">
        <dc:format>image/svg+xml</dc:format>
        <dc:type
           rdf:resource="http://purl.org/dc/dcmitype/StillImage" />
        <dc:title></dc:title>
      </cc:Work>
    </rdf:RDF>
  </metadata>
  <path
     inkscape:connector-curvature="0"
     id="path5884"
     style="fill:#62c1ec;fill-opacity:1;enable-background:new"
     d="M 11,3 C 8.1525,3 5.7275,4.8442667 4.6835,7.4544001 2.03285,7.8714668 0,10.261867 0,13.181866 0,16.3952 2.46245,19 5.5,19 l 11.6875,0 C 19.8455,19 22,16.720534 22,13.909333 22,11.296 20.1425,9.154667 17.746,8.8634673 17.121,5.528 14.337,3 11,3 Z" />
  <path
     style="opacity:0.2;fill:#ffffff;fill-opacity:1;enable-background:new"
     d="M 11,3 C 8.1525,3 5.7275938,4.8449447 4.6835938,7.4550781 2.0329437,7.8721448 0,10.261642 0,13.181641 0,13.288971 0.0102008,13.394102 0.015625,13.5 0.0997174,10.664883 2.089379,8.363265 4.6835938,7.9550781 5.7275938,5.3449447 8.1525,3.5 11,3.5 c 3.337,0 6.121094,2.5278143 6.746094,5.863281 2.340753,0.284426 4.154571,2.338775 4.238281,4.869141 C 21.990755,14.125137 22,14.019141 22,13.910156 22,11.296823 20.142594,9.154481 17.746094,8.8632812 17.121094,5.527814 14.337,3 11,3 Z"
     id="path4165"
     inkscape:connector-curvature="0" />
  <path
     style="opacity:0.3;fill:#000000;fill-opacity:1;enable-background:new"
     d="M 0.015625,13 C 0.0137956,13.061676 0,13.119471 0,13.181641 0,16.394975 2.46245,19 5.5,19 l 11.6875,0 C 19.8455,19 22,16.721357 22,13.910156 22,13.849366 21.986369,13.792684 21.984375,13.732422 21.826185,16.392483 19.742454,18.5 17.1875,18.5 L 5.5,18.5 C 2.5639086,18.5 0.1725941,16.064557 0.015625,13 Z"
     id="path4171"
     inkscape:connector-curvature="0" />
  <g
     id="g4244"
     style="opacity:0.2;fill:#000000;fill-opacity:1"
     transform="translate(0,0.49999991)">
    <rect
       style="opacity:1;fill:#000000;fill-opacity:1;stroke:none;stroke-width:2;stroke-linecap:round;stroke-linejoin:round;stroke-miterlimit:4;stroke-dasharray:none;stroke-opacity:1"
       id="rect4246"
       width="4"
       height="6"
       x="9"
       y="6" />
    <path
       sodipodi:type="star"
       style="opacity:1;fill:#000000;fill-opacity:1;stroke:none;stroke-width:2;stroke-linecap:round;stroke-linejoin:round;stroke-miterlimit:4;stroke-dasharray:none;stroke-opacity:1"
       id="path4248"
       sodipodi:sides="3"
       sodipodi:cx="22.942209"
       sodipodi:cy="34.514885"
       sodipodi:r1="13.688282"
       sodipodi:r2="6.844141"
       sodipodi:arg1="1.5707963"
       sodipodi:arg2="2.6179939"
       inkscape:flatsided="false"
       inkscape:rounded="0"
       inkscape:randomized="0"
       d="m 22.94221,48.203167 -5.927201,-10.266212 -5.9272,-10.266211 11.8544,0 11.8544,0 -5.9272,10.266212 z"
       inkscape:transform-center-y="1.3636367"
       transform="matrix(0.33742746,0,0,0.24351729,3.2586688,5.2616955)" />
  </g>
  <g
     id="g4240">
    <rect
       y="6"
       x="9"
       height="6"
       width="4"
       id="rect4137"
       style="opacity:1;fill:#ffffff;fill-opacity:1;stroke:none;stroke-width:2;stroke-linecap:round;stroke-linejoin:round;stroke-miterlimit:4;stroke-dasharray:none;stroke-opacity:1" />
    <path
       transform="matrix(0.33742746,0,0,0.24351729,3.2586688,5.2616955)"
       inkscape:transform-center-y="1.3636367"
       d="m 22.94221,48.203167 -5.927201,-10.266212 -5.9272,-10.266211 11.8544,0 11.8544,0 -5.9272,10.266212 z"
       inkscape:randomized="0"
       inkscape:rounded="0"
       inkscape:flatsided="false"
       sodipodi:arg2="2.6179939"
       sodipodi:arg1="1.5707963"
       sodipodi:r2="6.844141"
       sodipodi:r1="13.688282"
       sodipodi:cy="34.514885"
       sodipodi:cx="22.942209"
       sodipodi:sides="3"
       id="path4141"
       style="opacity:1;fill:#ffffff;fill-opacity:1;stroke:none;stroke-width:2;stroke-linecap:round;stroke-linejoin:round;stroke-miterlimit:4;stroke-dasharray:none;stroke-opacity:1"
       sodipodi:type="star" />
  </g>
</svg>
